X: 42681
T: Whistler And His Dog, The
R: jig
M: 6/8
K: Gmajor
a2 f dcB|c2 B A2 ^A|B2 F ^E2 F|A3- AFE|
D2 E F2 A|BdB A2 B|cec B2 A|e3- e2 A|
a2 f dcB|c2 B A^A=A|B f2 g2 f|B3 B2 c|
ded dcB|Adf a2 g|f3 e2|d3- d3||
|:D3 G3|F^EF D3|G2 B d2 g|f^ef d3|
g2 g e2 e|dBA GAB|1 A3 E3|F3 E3:|2 A3 B3|G3||

